build/img/sprites/02.svg

<svg width="65" height="32" viewBox="0 0 65 32" fill="none" xmlns="http://www.w3.org/2000/svg">
<mask id="path-1-outside-1_627_3939" maskUnits="userSpaceOnUse" x="0" y="0" width="65" height="32" fill="black">
<rect fill="white" width="65" height="32"/>
<path d="M13.84 30.64C11.36 30.64 9.16 30.0667 7.24 28.92C5.34667 27.7733 3.85333 26.1067 2.76 23.92C1.69333 21.7333 1.16 19.0933 1.16 16C1.16 12.9067 1.69333 10.2667 2.76 8.08C3.85333 5.89333 5.34667 4.22666 7.24 3.08C9.16 1.93333 11.36 1.36 13.84 1.36C16.32 1.36 18.5067 1.93333 20.4 3.08C22.32 4.22666 23.8133 5.89333 24.88 8.08C25.9733 10.2667 26.52 12.9067 26.52 16C26.52 19.0933 25.9733 21.7333 24.88 23.92C23.8133 26.1067 22.32 27.7733 20.4 28.92C18.5067 30.0667 16.32 30.64 13.84 30.64ZM13.84 23.08C14.4533 23.08 15 22.8667 15.48 22.44C15.96 22.0133 16.3333 21.28 16.6 20.24C16.8933 19.2 17.04 17.7867 17.04 16C17.04 14.1867 16.8933 12.7733 16.6 11.76C16.3333 10.72 15.96 9.98667 15.48 9.56C15 9.13333 14.4533 8.92 13.84 8.92C13.2267 8.92 12.68 9.13333 12.2 9.56C11.72 9.98667 11.3333 10.72 11.04 11.76C10.7733 12.7733 10.64 14.1867 10.64 16C10.64 17.7867 10.7733 19.2 11.04 20.24C11.3333 21.28 11.72 22.0133 12.2 22.44C12.68 22.8667 13.2267 23.08 13.84 23.08ZM28.4247 30V24.2L38.5447 14.84C39.1847 14.2267 39.6514 13.6933 39.9447 13.24C40.2647 12.7867 40.478 12.3867 40.5847 12.04C40.6914 11.6667 40.7447 11.32 40.7447 11C40.7447 10.3067 40.518 9.77333 40.0647 9.4C39.6114 9 38.9314 8.8 38.0247 8.8C37.198 8.8 36.4114 9.02667 35.6647 9.48C34.918 9.90667 34.3314 10.5467 33.9047 11.4L26.7847 7.84C27.798 5.92 29.318 4.36 31.3447 3.16C33.3714 1.96 35.8914 1.36 38.9047 1.36C41.118 1.36 43.078 1.72 44.7847 2.44C46.4914 3.16 47.8247 4.17333 48.7847 5.48C49.7447 6.78667 50.2247 8.33333 50.2247 10.12C50.2247 11.0267 50.1047 11.9333 49.8647 12.84C49.6514 13.7467 49.198 14.7067 48.5047 15.72C47.8114 16.7067 46.7847 17.8133 45.4247 19.04L37.8247 25.96L36.3447 22.68H50.8647V30H28.4247ZM58.1113 30.4C56.6179 30.4 55.3646 29.92 54.3513 28.96C53.3379 27.9733 52.8313 26.72 52.8313 25.2C52.8313 23.6533 53.3379 22.4133 54.3513 21.48C55.3646 20.5467 56.6179 20.08 58.1113 20.08C59.6046 20.08 60.8579 20.5467 61.8713 21.48C62.8846 22.4133 63.3913 23.6533 63.3913 25.2C63.3913 26.72 62.8846 27.9733 61.8713 28.96C60.8579 29.92 59.6046 30.4 58.1113 30.4Z"/>
</mask>
<path d="M7.24 28.92L6.72196 29.7754L6.72726 29.7785L7.24 28.92ZM2.76 23.92L1.86119 24.3584L1.86557 24.3672L2.76 23.92ZM2.76 8.08L1.86553 7.63276L1.86123 7.64157L2.76 8.08ZM7.24 3.08L6.72725 2.22144L6.72197 2.22464L7.24 3.08ZM20.4 3.08L19.882 3.93537L19.8873 3.93854L20.4 3.08ZM24.88 8.08L23.9812 8.51844L23.9856 8.52721L24.88 8.08ZM24.88 23.92L23.9855 23.4728L23.9812 23.4816L24.88 23.92ZM20.4 28.92L19.8873 28.0614L19.882 28.0646L20.4 28.92ZM16.6 20.24L15.6376 19.9685L15.6343 19.98L15.6313 19.9916L16.6 20.24ZM16.6 11.76L15.6313 12.0084L15.6352 12.0233L15.6394 12.0381L16.6 11.76ZM15.48 9.56L16.1444 8.81259L16.1444 8.81259L15.48 9.56ZM12.2 9.56L11.5356 8.81259V8.81259L12.2 9.56ZM11.04 11.76L10.0776 11.4885L10.0752 11.497L10.0729 11.5055L11.04 11.76ZM11.04 20.24L10.0713 20.4884L10.0743 20.5L10.0776 20.5115L11.04 20.24ZM13.84 29.64C11.5203 29.64 9.50125 29.1057 7.75274 28.0615L6.72726 29.7785C8.81876 31.0276 11.1997 31.64 13.84 31.64V29.64ZM7.75804 28.0646C6.04278 27.0258 4.67246 25.5089 3.65443 23.4728L1.86557 24.3672C3.03421 26.7045 4.65055 28.5208 6.72197 29.7754L7.75804 28.0646ZM3.65877 23.4816C2.67427 21.4634 2.16 18.9814 2.16 16H0.16C0.16 19.2053 0.712395 22.0033 1.86123 24.3584L3.65877 23.4816ZM2.16 16C2.16 13.0186 2.67427 10.5366 3.65877 8.51842L1.86123 7.64157C0.712395 9.99669 0.16 12.7947 0.16 16H2.16ZM3.65443 8.52721C4.67246 6.49114 6.04278 4.97417 7.75803 3.93536L6.72197 2.22464C4.65055 3.47916 3.03421 5.29552 1.86557 7.63278L3.65443 8.52721ZM7.75274 3.93854C9.50125 2.8943 11.5203 2.36 13.84 2.36V0.359999C11.1997 0.359999 8.81876 0.972368 6.72726 2.22145L7.75274 3.93854ZM13.84 2.36C16.1599 2.36 18.1631 2.89435 19.882 3.93536L20.918 2.22464C18.8502 0.97231 16.4801 0.359999 13.84 0.359999V2.36ZM19.8873 3.93854C21.6259 4.97688 22.9919 6.49031 23.9812 8.51842L25.7788 7.64157C24.6348 5.29635 23.0141 3.47645 20.9127 2.22146L19.8873 3.93854ZM23.9856 8.52721C24.9935 10.5431 25.52 13.0218 25.52 16H27.52C27.52 12.7915 26.9531 9.99019 25.7744 7.63278L23.9856 8.52721ZM25.52 16C25.52 18.9782 24.9935 21.4569 23.9856 23.4728L25.7744 24.3672C26.9531 22.0098 27.52 19.2085 27.52 16H25.52ZM23.9812 23.4816C22.9919 25.5097 21.6259 27.0231 19.8873 28.0615L20.9127 29.7785C23.0141 28.5235 24.6348 26.7036 25.7788 24.3584L23.9812 23.4816ZM19.882 28.0646C18.1631 29.1056 16.1599 29.64 13.84 29.64V31.64C16.4801 31.64 18.8502 31.0277 20.918 29.7754L19.882 28.0646ZM13.84 24.08C14.7106 24.08 15.4907 23.7684 16.1444 23.1874L14.8156 21.6926C14.5093 21.9649 14.1961 22.08 13.84 22.08V24.08ZM16.1444 23.1874C16.843 22.5664 17.2824 21.6049 17.5687 20.4884L15.6313 19.9916C15.3843 20.9551 15.077 21.4603 14.8156 21.6926L16.1444 23.1874ZM17.5625 20.5115C17.8916 19.3444 18.04 17.827 18.04 16H16.04C16.04 17.7464 15.8951 19.0555 15.6376 19.9685L17.5625 20.5115ZM18.04 16C18.04 14.1497 17.8922 12.6277 17.5606 11.4819L15.6394 12.0381C15.8944 12.919 16.04 14.2236 16.04 16H18.04ZM17.5687 11.5116C17.2824 10.3951 16.843 9.43364 16.1444 8.81259L14.8156 10.3074C15.077 10.5397 15.3843 11.0449 15.6313 12.0084L17.5687 11.5116ZM16.1444 8.81259C15.4907 8.23159 14.7106 7.92 13.84 7.92V9.92C14.1961 9.92 14.5093 10.0351 14.8156 10.3074L16.1444 8.81259ZM13.84 7.92C12.9694 7.92 12.1893 8.23159 11.5356 8.81259L12.8644 10.3074C13.1707 10.0351 13.4839 9.92 13.84 9.92V7.92ZM11.5356 8.81259C10.8456 9.42599 10.3912 10.3765 10.0776 11.4885L12.0025 12.0315C12.2755 11.0635 12.5944 10.5473 12.8644 10.3074L11.5356 8.81259ZM10.0729 11.5055C9.77415 12.6409 9.64 14.1535 9.64 16H11.64C11.64 14.2198 11.7725 12.9058 12.0071 12.0145L10.0729 11.5055ZM9.64 16C9.64 17.8229 9.77468 19.3314 10.0713 20.4884L12.0087 19.9916C11.772 19.0686 11.64 17.7504 11.64 16H9.64ZM10.0776 20.5115C10.3912 21.6235 10.8456 22.574 11.5356 23.1874L12.8644 21.6926C12.5944 21.4527 12.2755 20.9365 12.0025 19.9685L10.0776 20.5115ZM11.5356 23.1874C12.1893 23.7684 12.9694 24.08 13.84 24.08V22.08C13.4839 22.08 13.1707 21.9649 12.8644 21.6926L11.5356 23.1874ZM28.4247 30H27.4247V31H28.4247V30ZM28.4247 24.2L27.7457 23.4659L27.4247 23.7628V24.2H28.4247ZM38.5447 14.84L39.2237 15.5741L39.2302 15.5681L39.2366 15.562L38.5447 14.84ZM39.9447 13.24L39.1277 12.6633L39.1161 12.6798L39.1051 12.6967L39.9447 13.24ZM40.5847 12.04L41.5405 12.3341L41.5434 12.3244L41.5462 12.3147L40.5847 12.04ZM40.0647 9.4L39.4031 10.1498L39.4158 10.1611L39.429 10.1719L40.0647 9.4ZM35.6647 9.48L36.1608 10.3482L36.1723 10.3417L36.1837 10.3348L35.6647 9.48ZM33.9047 11.4L33.4575 12.2944L34.3519 12.7416L34.7991 11.8472L33.9047 11.4ZM26.7847 7.84L25.9003 7.37324L25.4232 8.27728L26.3375 8.73443L26.7847 7.84ZM31.3447 3.16L31.8542 4.02048L31.3447 3.16ZM44.7847 2.44L44.396 3.36136V3.36136L44.7847 2.44ZM48.7847 5.48L47.9788 6.07207V6.07207L48.7847 5.48ZM49.8647 12.84L48.898 12.5841L48.8944 12.5975L48.8913 12.611L49.8647 12.84ZM48.5047 15.72L49.3229 16.295L49.33 16.2847L48.5047 15.72ZM45.4247 19.04L44.7549 18.2974L44.7514 18.3006L45.4247 19.04ZM37.8247 25.96L36.9132 26.3713L37.4796 27.6266L38.4979 26.6994L37.8247 25.96ZM36.3447 22.68V21.68H34.7964L35.4332 23.0913L36.3447 22.68ZM50.8647 22.68H51.8647V21.68H50.8647V22.68ZM50.8647 30V31H51.8647V30H50.8647ZM29.4247 30V24.2H27.4247V30H29.4247ZM29.1037 24.9341L39.2237 15.5741L37.8657 14.1059L27.7457 23.4659L29.1037 24.9341ZM39.2366 15.562C39.9018 14.9245 40.4306 14.3297 40.7843 13.7833L39.1051 12.6967C38.8721 13.0569 38.4676 13.5288 37.8528 14.118L39.2366 15.562ZM40.7617 13.8167C41.1139 13.3177 41.3909 12.8202 41.5405 12.3341L39.6289 11.7459C39.5652 11.9531 39.4155 12.2556 39.1277 12.6633L40.7617 13.8167ZM41.5462 12.3147C41.6732 11.8704 41.7447 11.4302 41.7447 11H39.7447C39.7447 11.2098 39.7095 11.463 39.6232 11.7653L41.5462 12.3147ZM41.7447 11C41.7447 10.0678 41.427 9.22645 40.7004 8.62807L39.429 10.1719C39.609 10.3202 39.7447 10.5455 39.7447 11H41.7447ZM40.7263 8.65016C40.0178 8.02497 39.0569 7.8 38.0247 7.8V9.8C38.8059 9.8 39.2049 9.97503 39.4031 10.1498L40.7263 8.65016ZM38.0247 7.8C37.0045 7.8 36.0396 8.08251 35.1457 8.62521L36.1837 10.3348C36.7831 9.97082 37.3916 9.8 38.0247 9.8V7.8ZM35.1685 8.61176C34.232 9.14694 33.5152 9.94294 33.0103 10.9528L34.7991 11.8472C35.1475 11.1504 35.6041 10.6664 36.1608 10.3482L35.1685 8.61176ZM34.3519 10.5056L27.2319 6.94557L26.3375 8.73443L33.4575 12.2944L34.3519 10.5056ZM27.6691 8.30676C28.5889 6.5639 29.9724 5.13466 31.8542 4.02048L30.8352 2.29952C28.6636 3.58534 27.0071 5.2761 25.9003 7.37324L27.6691 8.30676ZM31.8542 4.02048C33.6891 2.93399 36.0214 2.36 38.9047 2.36V0.359999C35.7613 0.359999 33.0536 0.986008 30.8352 2.29952L31.8542 4.02048ZM38.9047 2.36C41.01 2.36 42.8339 2.70234 44.396 3.36136L45.1734 1.51864C43.3222 0.737661 41.226 0.359999 38.9047 0.359999V2.36ZM44.396 3.36136C45.9606 4.02142 47.1401 4.93053 47.9788 6.07207L49.5906 4.88792C48.5093 3.41613 47.0222 2.29858 45.1734 1.51863L44.396 3.36136ZM47.9788 6.07207C48.7998 7.18955 49.2247 8.52348 49.2247 10.12H51.2247C51.2247 8.14318 50.6896 6.38378 49.5906 4.88792L47.9788 6.07207ZM49.2247 10.12C49.2247 10.9374 49.1166 11.7581 48.898 12.5841L50.8314 13.0959C51.0927 12.1086 51.2247 11.116 51.2247 10.12H49.2247ZM48.8913 12.611C48.7136 13.3661 48.324 14.2131 47.6794 15.1553L49.33 16.2847C50.072 15.2002 50.5891 14.1273 50.8381 13.069L48.8913 12.611ZM47.6865 15.1451C47.0523 16.0476 46.0848 17.0979 44.7549 18.2974L46.0945 19.7826C47.4846 18.5288 48.5704 17.3657 49.3229 16.2949L47.6865 15.1451ZM44.7514 18.3006L37.1514 25.2206L38.4979 26.6994L46.0979 19.7794L44.7514 18.3006ZM38.7362 25.5487L37.2562 22.2687L35.4332 23.0913L36.9132 26.3713L38.7362 25.5487ZM36.3447 23.68H50.8647V21.68H36.3447V23.68ZM49.8647 22.68V30H51.8647V22.68H49.8647ZM50.8647 29H28.4247V31H50.8647V29ZM54.3512 28.96L53.6536 29.6765L53.6635 29.686L54.3512 28.96ZM54.3512 21.48L53.6738 20.7445V20.7445L54.3512 21.48ZM61.8713 21.48L62.5487 20.7445V20.7445L61.8713 21.48ZM61.8713 28.96L62.5591 29.686L62.5689 29.6765L61.8713 28.96ZM58.1113 29.4C56.8542 29.4 55.8528 29.005 55.039 28.234L53.6635 29.686C54.8764 30.835 56.3817 31.4 58.1113 31.4V29.4ZM55.0489 28.2435C54.2443 27.4602 53.8312 26.4725 53.8312 25.2H51.8312C51.8312 26.9675 52.4315 28.4865 53.6536 29.6765L55.0489 28.2435ZM53.8312 25.2C53.8312 23.8949 54.2473 22.9353 55.0287 22.2155L53.6738 20.7445C52.4285 21.8914 51.8312 23.4118 51.8312 25.2H53.8312ZM55.0287 22.2155C55.8412 21.4672 56.846 21.08 58.1113 21.08V19.08C56.3899 19.08 54.888 19.6261 53.6738 20.7445L55.0287 22.2155ZM58.1113 21.08C59.3765 21.08 60.3813 21.4672 61.1938 22.2155L62.5487 20.7445C61.3345 19.6261 59.8326 19.08 58.1113 19.08V21.08ZM61.1938 22.2155C61.9752 22.9353 62.3913 23.8949 62.3913 25.2H64.3913C64.3913 23.4118 63.794 21.8914 62.5487 20.7445L61.1938 22.2155ZM62.3913 25.2C62.3913 26.4725 61.9782 27.4602 61.1736 28.2435L62.5689 29.6765C63.791 28.4865 64.3913 26.9675 64.3913 25.2H62.3913ZM61.1835 28.234C60.3697 29.005 59.3683 29.4 58.1113 29.4V31.4C59.8408 31.4 61.3461 30.835 62.559 29.686L61.1835 28.234Z" fill="#78213A" mask="url(#path-1-outside-1_627_3939)"/>
</svg>

<svg width="65" height="32" viewBox="0 0 65 32" fill="none" xmlns="http://www.w3.org/2000/svg"><mask id="path-1-outside-1_627_3939" maskUnits="userSpaceOnUse" x="0" y="0" width="65" height="32" fill="#000"><path fill="#fff" d="M0 0h65v32H0z"/><path d="M13.84 30.64c-2.48 0-4.68-.573-6.6-1.72-1.893-1.147-3.387-2.813-4.48-5-1.067-2.187-1.6-4.827-1.6-7.92s.533-5.733 1.6-7.92c1.093-2.187 2.587-3.853 4.48-5 1.92-1.147 4.12-1.72 6.6-1.72 2.48 0 4.667.573 6.56 1.72 1.92 1.147 3.413 2.813 4.48 5 1.093 2.187 1.64 4.827 1.64 7.92s-.547 5.733-1.64 7.92c-1.067 2.187-2.56 3.853-4.48 5-1.893 1.147-4.08 1.72-6.56 1.72zm0-7.56c.613 0 1.16-.213 1.64-.64.48-.427.853-1.16 1.12-2.2.293-1.04.44-2.453.44-4.24 0-1.813-.147-3.227-.44-4.24-.267-1.04-.64-1.773-1.12-2.2-.48-.427-1.027-.64-1.64-.64s-1.16.213-1.64.64c-.48.427-.867 1.16-1.16 2.2-.267 1.013-.4 2.427-.4 4.24 0 1.787.133 3.2.4 4.24.293 1.04.68 1.773 1.16 2.2.48.427 1.027.64 1.64.64zM28.425 30v-5.8l10.12-9.36c.64-.613 1.106-1.147 1.4-1.6.32-.453.533-.853.64-1.2a3.8 3.8 0 00.16-1.04c0-.693-.227-1.227-.68-1.6-.454-.4-1.134-.6-2.04-.6-.827 0-1.614.227-2.36.68-.747.427-1.334 1.067-1.76 1.92l-7.12-3.56c1.013-1.92 2.533-3.48 4.56-4.68 2.026-1.2 4.546-1.8 7.56-1.8 2.213 0 4.173.36 5.88 1.08 1.706.72 3.04 1.733 4 3.04s1.44 2.853 1.44 4.64c0 .907-.12 1.813-.36 2.72-.214.907-.667 1.867-1.36 2.88-.694.987-1.72 2.093-3.08 3.32l-7.6 6.92-1.48-3.28h14.52V30h-22.44zm29.686.4c-1.493 0-2.746-.48-3.76-1.44-1.013-.987-1.52-2.24-1.52-3.76 0-1.547.507-2.787 1.52-3.72 1.014-.933 2.267-1.4 3.76-1.4 1.494 0 2.747.467 3.76 1.4 1.014.933 1.52 2.173 1.52 3.72 0 1.52-.506 2.773-1.52 3.76-1.013.96-2.266 1.44-3.76 1.44z"/></mask><path d="M7.24 28.92l-.518.855.005.004.513-.859zm-4.48-5l-.899.438.005.01.894-.448zm0-15.84l-.894-.447-.005.009.899.438zm4.48-5l-.513-.859-.005.004.518.855zm13.16 0l-.518.855.005.004.513-.859zm4.48 5l-.899.438.005.01.894-.448zm0 15.84l-.895-.447-.004.009.899.438zm-4.48 5l-.513-.859-.005.004.518.855zm-3.8-8.68l-.962-.271-.004.011-.003.012.969.248zm0-8.48l-.969.248.004.015.004.015.961-.278zm-1.12-2.2l.664-.747-.664.747zm-3.28 0l-.664-.747.664.747zm-1.16 2.2l-.962-.271-.003.008-.002.008.967.255zm0 8.48l-.969.248.003.012.004.012.962-.272zm2.8 9.4c-2.32 0-4.339-.534-6.087-1.579L6.727 29.78c2.093 1.247 4.473 1.86 7.113 1.86v-2zm-6.082-1.575c-1.715-1.04-3.086-2.556-4.104-4.592l-1.788.894c1.168 2.337 2.785 4.154 4.856 5.408l1.036-1.71zm-4.1-4.583C2.675 21.463 2.16 18.982 2.16 16h-2c0 3.205.552 6.003 1.701 8.358l1.798-.876zM2.16 16c0-2.981.514-5.463 1.499-7.482L1.86 7.642C.712 9.997.16 12.795.16 16h2zm1.494-7.473c1.018-2.036 2.389-3.553 4.104-4.592l-1.036-1.71c-2.071 1.254-3.688 3.07-4.856 5.408l1.788.894zM7.753 3.94C9.5 2.894 11.52 2.36 13.84 2.36v-2c-2.64 0-5.021.612-7.113 1.861L7.753 3.94zm6.087-1.58c2.32 0 4.323.534 6.042 1.575l1.036-1.71C18.85.972 16.48.36 13.84.36v2zm6.047 1.579c1.739 1.038 3.105 2.551 4.094 4.58l1.798-.877c-1.144-2.346-2.765-4.166-4.866-5.42l-1.026 1.717zm4.099 4.588c1.008 2.016 1.534 4.495 1.534 7.473h2c0-3.209-.567-6.01-1.746-8.367l-1.788.894zM25.52 16c0 2.978-.526 5.457-1.534 7.473l1.788.894c1.18-2.357 1.746-5.159 1.746-8.367h-2zm-1.539 7.482c-.99 2.028-2.355 3.541-4.094 4.58l1.026 1.716c2.101-1.255 3.722-3.074 4.866-5.42l-1.798-.876zm-4.099 4.583c-1.719 1.04-3.722 1.575-6.042 1.575v2c2.64 0 5.01-.612 7.078-1.865l-1.036-1.71zM13.84 24.08c.87 0 1.65-.312 2.304-.893l-1.328-1.494c-.307.272-.62.387-.976.387v2zm2.304-.893c.699-.62 1.138-1.582 1.425-2.699l-1.938-.496c-.247.963-.554 1.468-.815 1.7l1.328 1.495zm1.419-2.675c.329-1.168.477-2.685.477-4.512h-2c0 1.746-.145 3.055-.402 3.968l1.925.544zM18.04 16c0-1.85-.148-3.372-.48-4.518l-1.92.556c.254.881.4 2.186.4 3.962h2zm-.471-4.488c-.287-1.117-.726-2.078-1.425-2.7l-1.328 1.495c.261.233.568.738.815 1.701l1.938-.496zm-1.425-2.7c-.653-.58-1.433-.892-2.304-.892v2c.356 0 .67.115.976.387l1.328-1.494zM13.84 7.92c-.87 0-1.65.312-2.304.893l1.328 1.494c.307-.272.62-.387.976-.387v-2zm-2.304.893c-.69.613-1.145 1.563-1.458 2.675l1.925.543c.272-.968.591-1.484.861-1.724l-1.328-1.494zm-1.463 2.692C9.774 12.641 9.64 14.153 9.64 16h2c0-1.78.133-3.094.367-3.986l-1.934-.508zM9.64 16c0 1.823.135 3.331.431 4.488l1.938-.496c-.237-.923-.369-2.242-.369-3.992h-2zm.438 4.512c.313 1.111.768 2.062 1.458 2.675l1.328-1.494c-.27-.24-.589-.757-.862-1.725l-1.924.544zm1.458 2.675c.653.581 1.433.893 2.304.893v-2c-.356 0-.67-.115-.976-.387l-1.328 1.494zM28.425 30h-1v1h1v-1zm0-5.8l-.68-.734-.32.297v.437h1zm10.12-9.36l.679.734.006-.006.007-.006-.692-.722zm1.4-1.6l-.817-.577-.012.017-.01.017.839.543zm.64-1.2l.956.294.002-.01.003-.01-.961-.274zm-.52-2.64l-.662.75.013.011.013.01.636-.771zm-4.4.08l.496.868.011-.006.012-.007-.52-.855zm-1.76 1.92l-.447.894.894.448.447-.895-.894-.447zm-7.12-3.56l-.885-.467-.477.904.915.457.447-.894zm4.56-4.68l.51.86-.51-.86zm13.44-.72l-.389.921.389-.921zm4 3.04l-.806.592.806-.592zm1.08 7.36l-.967-.256-.004.014-.003.013.974.229zm-1.36 2.88l.818.575.007-.01-.825-.565zm-3.08 3.32l-.67-.743-.004.004.674.739zm-7.6 6.92l-.912.411.567 1.256 1.018-.928-.673-.739zm-1.48-3.28v-1h-1.549l.637 1.411.912-.411zm14.52 0h1v-1h-1v1zm0 7.32v1h1v-1h-1zm-21.44 0v-5.8h-2V30h2zm-.321-5.066l10.12-9.36-1.358-1.468-10.12 9.36 1.358 1.468zm10.133-9.372c.665-.637 1.194-1.232 1.547-1.779l-1.679-1.086c-.233.36-.637.832-1.252 1.421l1.384 1.444zm1.525-1.745c.352-.5.629-.997.779-1.483l-1.912-.588c-.064.207-.213.51-.501.917l1.634 1.154zm.784-1.502c.127-.445.199-.885.199-1.315h-2c0 .21-.035.463-.122.765l1.923.55zM41.745 11c0-.932-.318-1.774-1.045-2.372l-1.271 1.544c.18.148.316.373.316.828h2zm-1.019-2.35c-.708-.625-1.67-.85-2.701-.85v2c.78 0 1.18.175 1.378.35l1.323-1.5zm-2.701-.85c-1.02 0-1.985.283-2.88.825l1.039 1.71c.6-.364 1.208-.535 1.84-.535v-2zm-2.856.812c-.937.535-1.654 1.33-2.159 2.34l1.79.895c.348-.697.804-1.18 1.36-1.499l-.991-1.736zm-.817 1.894l-7.12-3.56-.895 1.788 7.12 3.56.895-1.788zm-6.683-2.2c.92-1.742 2.303-3.171 4.185-4.286L30.835 2.3c-2.171 1.285-3.828 2.976-4.935 5.073l1.77.934zm4.185-4.286c1.835-1.086 4.167-1.66 7.05-1.66v-2c-3.143 0-5.85.626-8.069 1.94l1.02 1.72zm7.05-1.66c2.106 0 3.93.342 5.492 1.001l.777-1.842C43.323.738 41.226.36 38.905.36v2zm5.492 1.001c1.565.66 2.744 1.57 3.583 2.711l1.612-1.184c-1.082-1.472-2.569-2.59-4.418-3.37l-.777 1.843zm3.583 2.711c.82 1.118 1.246 2.451 1.246 4.048h2c0-1.977-.535-3.736-1.634-5.232l-1.612 1.184zm1.246 4.048c0 .817-.108 1.638-.327 2.464l1.933.512c.262-.987.394-1.98.394-2.976h-2zm-.334 2.491c-.177.755-.567 1.602-1.212 2.544l1.651 1.13c.742-1.085 1.26-2.158 1.508-3.216l-1.947-.458zm-1.204 2.534c-.635.903-1.602 1.953-2.932 3.152l1.34 1.486c1.39-1.254 2.475-2.417 3.228-3.488l-1.636-1.15zm-2.936 3.156l-7.6 6.92 1.347 1.478 7.6-6.92-1.347-1.478zm-6.015 7.248l-1.48-3.28-1.823.822 1.48 3.28 1.823-.822zm-2.391-1.869h14.52v-2h-14.52v2zm13.52-1V30h2v-7.32h-2zm1 6.32h-22.44v2h22.44v-2zm3.486-.04l-.697.716.01.01.687-.726zm0-7.48l-.677-.736.677.736zm7.52 0l.678-.736-.678.736zm0 7.48l.688.726.01-.01-.698-.716zm-3.76.44c-1.257 0-2.258-.395-3.072-1.166l-1.376 1.452c1.213 1.149 2.719 1.714 4.448 1.714v-2zm-3.062-1.156c-.805-.784-1.218-1.771-1.218-3.044h-2c0 1.768.6 3.287 1.823 4.477l1.395-1.433zM53.83 25.2c0-1.305.416-2.265 1.198-2.985l-1.355-1.47c-1.245 1.146-1.843 2.667-1.843 4.455h2zm1.198-2.985c.812-.748 1.817-1.135 3.082-1.135v-2c-1.721 0-3.223.546-4.437 1.665l1.355 1.47zm3.082-1.135c1.266 0 2.27.387 3.083 1.136l1.355-1.472c-1.215-1.118-2.716-1.664-4.438-1.664v2zm3.083 1.136c.781.72 1.197 1.679 1.197 2.984h2c0-1.788-.597-3.309-1.842-4.456l-1.355 1.471zM62.39 25.2c0 1.273-.413 2.26-1.217 3.044l1.395 1.433c1.222-1.19 1.822-2.71 1.822-4.477h-2zm-1.207 3.034c-.814.771-1.816 1.166-3.073 1.166v2c1.73 0 3.235-.565 4.448-1.714l-1.375-1.452z" fill="#78213A" mask="url(#path-1-outside-1_627_3939)"/></svg>
